Sweet-Rainbow/icons/nmap.svg

<?xml version="1.0" encoding="UTF-8" standalone="no"?>
<!-- Generator: Gravit.io -->

<svg
   xmlns:dc="http://purl.org/dc/elements/1.1/"
   xmlns:cc="http://creativecommons.org/ns#"
   xmlns:rdf="http://www.w3.org/1999/02/22-rdf-syntax-ns#"
   xmlns:svg="http://www.w3.org/2000/svg"
   xmlns="http://www.w3.org/2000/svg"
   xmlns:sodipodi="http://sodipodi.sourceforge.net/DTD/sodipodi-0.dtd"
   xmlns:inkscape="http://www.inkscape.org/namespaces/inkscape"
   style="isolation:isolate"
   viewBox="0 0 36 36"
   width="48"
   height="48"
   version="1.1"
   id="svg23"
   sodipodi:docname="nmap.svg"
   inkscape:version="0.92.4 (5da689c313, 2019-01-14)">
  <metadata
     id="metadata29">
    <rdf:RDF>
      <cc:Work
         rdf:about="">
        <dc:format>image/svg+xml</dc:format>
        <dc:type
           rdf:resource="http://purl.org/dc/dcmitype/StillImage" />
        <dc:title></dc:title>
      </cc:Work>
    </rdf:RDF>
  </metadata>
  <defs
     id="defs27" />
  <sodipodi:namedview
     pagecolor="#ffffff"
     bordercolor="#666666"
     borderopacity="1"
     objecttolerance="10"
     gridtolerance="10"
     guidetolerance="10"
     inkscape:pageopacity="0"
     inkscape:pageshadow="2"
     inkscape:window-width="640"
     inkscape:window-height="480"
     id="namedview25"
     showgrid="false"
     inkscape:zoom="29.365243"
     inkscape:cx="25.325443"
     inkscape:cy="32"
     inkscape:current-layer="svg23"
     units="px" />
  <linearGradient
     id="_lgradient_4"
     x1="19.375999"
     y1="24"
     x2="28.624001"
     y2="24"
     gradientUnits="userSpaceOnUse">
    <stop
       offset="0%"
       stop-opacity="1"
       style="stop-color:rgb(178,254,250)"
       id="stop2" />
    <stop
       offset="98.26086956521739%"
       stop-opacity="1"
       style="stop-color:rgb(14,210,247)"
       id="stop4" />
  </linearGradient>
  <linearGradient
     id="_lgradient_5"
     x1="0"
     y1="0.5"
     x2="1"
     y2="0.5"
     gradientTransform="scale(48)"
     gradientUnits="userSpaceOnUse">
    <stop
       offset="0%"
       stop-opacity="1"
       style="stop-color:rgb(178,254,250)"
       id="stop9" />
    <stop
       offset="98.26086956521739%"
       stop-opacity="1"
       style="stop-color:rgb(14,210,247)"
       id="stop11" />
  </linearGradient>
  <linearGradient
     id="_lgradient_6"
     x1="0"
     y1="0.5"
     x2="1"
     y2="0.5"
     gradientTransform="matrix(16,0,0,12,16,18)"
     gradientUnits="userSpaceOnUse">
    <stop
       offset="0%"
       stop-opacity="1"
       style="stop-color:rgb(178,254,250)"
       id="stop16" />
    <stop
       offset="98.26086956521739%"
       stop-opacity="1"
       style="stop-color:rgb(14,210,247)"
       id="stop18" />
  </linearGradient>
  <g
     id="g839"
     transform="scale(0.75)">
    <path
       id="path7"
       stroke-miterlimit="3"
       d="M 20.376,24 C 20.376,22 22,20.376 24,20.376 26,20.376 27.624,22 27.624,24 27.624,26 26,27.624 24,27.624 22,27.624 20.376,26 20.376,24 Z"
       inkscape:connector-curvature="0"
       style="vector-effect:non-scaling-stroke;fill:none;stroke:url(#_lgradient_4);stroke-width:2;stroke-linecap:square;stroke-linejoin:miter;stroke-miterlimit:3" />
    <path
       id="path14"
       d="m 12.375,24.028 c 0.39,-0.515 0.792,-1.017 1.231,-1.477 0.792,-0.835 1.657,-1.532 2.608,-2.103 1.035,-0.626 2.144,-1.086 3.29,-1.393 1.486,-0.39 3.009,-0.598 4.533,-0.626 1.498,-0.028 2.997,0.139 4.472,0.487 1.121,0.279 2.217,0.724 3.229,1.323 0.95,0.571 1.815,1.282 2.583,2.117 0.463,0.502 0.902,1.031 1.304,1.616 -0.39,0.515 -0.792,1.017 -1.231,1.477 -0.792,0.835 -1.657,1.532 -2.608,2.103 -1.035,0.626 -2.144,1.086 -3.29,1.393 -1.486,0.39 -3.009,0.598 -4.533,0.626 -1.498,0.028 -2.997,-0.139 -4.472,-0.487 C 18.37,28.805 17.274,28.36 16.262,27.761 15.312,27.19 14.447,26.479 13.679,25.644 13.216,25.142 12.777,24.613 12.375,24.028 Z M 7.12,22.794 c 0.418,-0.883 1.685,-2.75 3.184,-4.337 1.096,-1.157 2.315,-2.145 3.643,-2.939 1.414,-0.85 2.912,-1.491 4.46,-1.895 1.828,-0.473 3.692,-0.738 5.556,-0.766 1.865,-0.027 3.729,0.168 5.545,0.613 1.559,0.376 3.07,0.989 4.484,1.839 1.34,0.794 2.583,1.81 3.68,2.994 1.523,1.658 2.802,3.594 3.229,4.538 0.296,0.655 0.287,1.715 -0.021,2.365 -0.418,0.883 -1.685,2.75 -3.184,4.337 -1.096,1.157 -2.315,2.145 -3.643,2.939 -1.414,0.85 -2.912,1.491 -4.46,1.895 -1.828,0.473 -3.692,0.738 -5.556,0.766 -1.865,0.027 -3.729,-0.168 -5.545,-0.613 -1.559,-0.376 -3.07,-0.989 -4.484,-1.839 -1.34,-0.794 -2.583,-1.81 -3.68,-2.994 C 8.805,28.039 7.526,26.103 7.099,25.159 6.803,24.504 6.812,23.444 7.12,22.794 Z M 17.78,43.01 v 0 c -1.049,-0.342 -2.178,0.231 -2.52,1.28 v 0 c -0.342,1.049 0.231,2.178 1.28,2.52 v 0 C 18.94,47.6 21.45,48 23.97,48 32.32,48 40.1,43.66 44.46,36.54 46.77,32.78 48,28.44 48,24.03 48,15.68 43.66,7.9 36.54,3.54 32.78,1.23 28.45,0 24.03,0 15.68,0 7.9,4.34 3.54,11.46 1.23,15.22 0,19.55 0,23.97 0,29.61 1.98,35.08 5.59,39.41 v 0 c 0.712,0.844 1.978,0.956 2.825,0.25 v 0 C 9.262,38.954 9.372,37.69 8.66,36.84 v 0 C 5.65,33.23 4,28.68 4,23.97 4,20.3 5.02,16.69 6.95,13.55 10.59,7.62 17.07,4 24.03,4 27.71,4 31.31,5.02 34.45,6.95 40.38,10.59 44,17.07 44,24.03 44,27.7 42.98,31.31 41.05,34.45 37.41,40.38 30.93,44 23.97,44 c -2.1,0 -4.19,-0.33 -6.19,-0.99 z"
       inkscape:connector-curvature="0"
       style="fill:url(#_lgradient_5);fill-rule:evenodd" />
    <path
       id="path21"
       d="M 24.6,23.4 V 18 h -1.2 v 5.4 H 16 v 1.2 h 7.4 V 30 h 1.2 V 24.6 H 32 v -1.2 z"
       inkscape:connector-curvature="0"
       style="fill:url(#_lgradient_6);fill-rule:evenodd" />
  </g>
</svg>

<?xml version="1.0" encoding="UTF-8" standalone="no"?><!-- Generator: Gravit.io --><svg xmlns="http://www.w3.org/2000/svg" xmlns:xlink="http://www.w3.org/1999/xlink" style="isolation:isolate" viewBox="0 0 48 48" width="48pt" height="48pt"><linearGradient id="_lgradient_4" x1="0" y1="0.5" x2="1" y2="0.5"><stop offset="0%" stop-opacity="1" style="stop-color:rgb(178,254,250)"/><stop offset="98.26086956521739%" stop-opacity="1" style="stop-color:rgb(14,210,247)"/></linearGradient><path d=" M 20.376 24 C 20.376 22 22 20.376 24 20.376 C 26 20.376 27.624 22 27.624 24 C 27.624 26 26 27.624 24 27.624 C 22 27.624 20.376 26 20.376 24 Z " fill="none" vector-effect="non-scaling-stroke" stroke-width="2" stroke="url(#_lgradient_4)" stroke-linejoin="miter" stroke-linecap="square" stroke-miterlimit="3"/><linearGradient id="_lgradient_5" x1="0" y1="0.5" x2="1" y2="0.5" gradientTransform="matrix(48,0,0,48,0,0)" gradientUnits="userSpaceOnUse"><stop offset="0%" stop-opacity="1" style="stop-color:rgb(178,254,250)"/><stop offset="98.26086956521739%" stop-opacity="1" style="stop-color:rgb(14,210,247)"/></linearGradient><path d=" M 12.375 24.028 C 12.765 23.513 13.167 23.011 13.606 22.551 C 14.398 21.716 15.263 21.019 16.214 20.448 C 17.249 19.822 18.358 19.362 19.504 19.055 C 20.99 18.665 22.513 18.457 24.037 18.429 C 25.535 18.401 27.034 18.568 28.509 18.916 C 29.63 19.195 30.726 19.64 31.738 20.239 C 32.688 20.81 33.553 21.521 34.321 22.356 C 34.784 22.858 35.223 23.387 35.625 23.972 C 35.235 24.487 34.833 24.989 34.394 25.449 C 33.602 26.284 32.737 26.981 31.786 27.552 C 30.751 28.178 29.642 28.638 28.496 28.945 C 27.01 29.335 25.487 29.543 23.963 29.571 C 22.465 29.599 20.966 29.432 19.491 29.084 C 18.37 28.805 17.274 28.36 16.262 27.761 C 15.312 27.19 14.447 26.479 13.679 25.644 C 13.216 25.142 12.777 24.613 12.375 24.028 L 12.375 24.028 Z  M 7.12 22.794 C 7.538 21.911 8.805 20.044 10.304 18.457 C 11.4 17.3 12.619 16.312 13.947 15.518 C 15.361 14.668 16.859 14.027 18.407 13.623 C 20.235 13.15 22.099 12.885 23.963 12.857 C 25.828 12.83 27.692 13.025 29.508 13.47 C 31.067 13.846 32.578 14.459 33.992 15.309 C 35.332 16.103 36.575 17.119 37.672 18.303 C 39.195 19.961 40.474 21.897 40.901 22.841 C 41.197 23.496 41.188 24.556 40.88 25.206 C 40.462 26.089 39.195 27.956 37.696 29.543 C 36.6 30.7 35.381 31.688 34.053 32.482 C 32.639 33.332 31.141 33.973 29.593 34.377 C 27.765 34.85 25.901 35.115 24.037 35.143 C 22.172 35.17 20.308 34.975 18.492 34.53 C 16.933 34.154 15.422 33.541 14.008 32.691 C 12.668 31.897 11.425 30.881 10.328 29.697 C 8.805 28.039 7.526 26.103 7.099 25.159 C 6.803 24.504 6.812 23.444 7.12 22.794 L 7.12 22.794 Z  M 17.78 43.01 L 17.78 43.01 C 16.731 42.668 15.602 43.241 15.26 44.29 L 15.26 44.29 C 14.918 45.339 15.491 46.468 16.54 46.81 L 16.54 46.81 C 18.94 47.6 21.45 48 23.97 48 C 32.32 48 40.1 43.66 44.46 36.54 C 46.77 32.78 48 28.44 48 24.03 C 48 15.68 43.66 7.9 36.54 3.54 C 32.78 1.23 28.45 0 24.03 0 C 15.68 0 7.9 4.34 3.54 11.46 C 1.23 15.22 0 19.55 0 23.97 C 0 29.61 1.98 35.08 5.59 39.41 L 5.59 39.41 C 6.302 40.254 7.568 40.366 8.415 39.66 L 8.415 39.66 C 9.262 38.954 9.372 37.69 8.66 36.84 L 8.66 36.84 C 5.65 33.23 4 28.68 4 23.97 C 4 20.3 5.02 16.69 6.95 13.55 C 10.59 7.62 17.07 4 24.03 4 C 27.71 4 31.31 5.02 34.45 6.95 C 40.38 10.59 44 17.07 44 24.03 C 44 27.7 42.98 31.31 41.05 34.45 C 37.41 40.38 30.93 44 23.97 44 C 21.87 44 19.78 43.67 17.78 43.01 Z " fill-rule="evenodd" fill="url(#_lgradient_5)"/><linearGradient id="_lgradient_6" x1="0" y1="0.5" x2="1" y2="0.5" gradientTransform="matrix(16,0,0,12,16,18)" gradientUnits="userSpaceOnUse"><stop offset="0%" stop-opacity="1" style="stop-color:rgb(178,254,250)"/><stop offset="98.26086956521739%" stop-opacity="1" style="stop-color:rgb(14,210,247)"/></linearGradient><path d=" M 24.6 23.4 L 24.6 18 L 23.4 18 L 23.4 23.4 L 16 23.4 L 16 24.6 L 23.4 24.6 L 23.4 30 L 24.6 30 L 24.6 24.6 L 32 24.6 L 32 23.4 L 24.6 23.4 Z " fill-rule="evenodd" fill="url(#_lgradient_6)"/></svg>
